X:11
T:Yank's Reel
R:reel
C:David Papazian
O:contempory Cape Breton
D:Allie Bennett, It's About Time
Z:Paul Stewart Cranford (P.S.C.), <http://www.cranfordpub.com>
L:1/8
M:C|
Q:333
K:A
AB|cABG AFEC|A,CEA cABA|FDFA dBcA|BGAF EGAB|
(3(cBA) BG AFEC|A,CEA cABA|FDFA dfed|cABG A2:|
|:AB|cffe f2 fg|(3(agf) ge f2 fa|ge e/e/e Be e/e/e|GBef gefe|
cffe f2 fg|(3(agf) ge fefg|a(f ~f2) ecAc|BAGB A2:|
